svg/business/chart_pie_2_line.svg

<?xml version="1.0" encoding="UTF-8"?>
<svg width="24px" height="24px" viewBox="0 0 24 24" version="1.1" xmlns="http://www.w3.org/2000/svg" xmlns:xlink="http://www.w3.org/1999/xlink">
    <title>chart_pie_2_line</title>
    <g id="Icon" stroke="none" stroke-width="1" fill="none" fill-rule="evenodd">
        <g id="Business" transform="translate(-432.000000, -480.000000)">
            <g id="chart_pie_2_line" transform="translate(432.000000, 480.000000)">
                <path d="M24,0 L24,24 L0,24 L0,0 L24,0 Z M12.5935,23.2578 L12.5819,23.2595 L12.5109,23.295 L12.4919,23.2987 L12.4767,23.295 L12.4057,23.2595 C12.3958,23.2564 12.387,23.259 12.3821,23.2649 L12.378,23.2758 L12.3609,23.7031 L12.3659,23.7235 L12.3769,23.7357 L12.4805,23.8097 L12.4953,23.8136 L12.5071,23.8097 L12.6107,23.7357 L12.6233,23.7197 L12.6267,23.7031 L12.6096,23.2758 C12.6076,23.2657 12.601,23.2593 12.5935,23.2578 Z M12.8584,23.1453 L12.8445,23.1473 L12.6598,23.2397 L12.6499,23.2499 L12.6472,23.2611 L12.6651,23.6906 L12.6699,23.7034 L12.6784,23.7105 L12.8793,23.8032 C12.8914,23.8069 12.9022,23.803 12.9078,23.7952 L12.9118,23.7812 L12.8777,23.1665 C12.8753,23.1546 12.8674,23.147 12.8584,23.1453 Z M12.143,23.1473 C12.1332,23.1424 12.1222,23.1453 12.1156,23.1526 L12.1099,23.1665 L12.0758,23.7812 C12.0751,23.7927 12.0828,23.8019 12.0926,23.8046 L12.1083,23.8032 L12.3092,23.7105 L12.3186,23.7024 L12.3225,23.6906 L12.3404,23.2611 L12.3372,23.2485 L12.3278,23.2397 L12.143,23.1473 Z" id="MingCute" fill-rule="nonzero"></path>
                <path d="M12,2 C11.4477,2 11,2.44772 11,3 L11,12 C11,12.5523 11.4477,13 12,13 L21,13 C21.5523,13 22,12.5523 22,12 C22,6.47715 17.5228,2 12,2 Z M13,11 L13,4.06189 C16.6187,4.51314 19.4869,7.38128 19.9381,11 L13,11 Z M8.88919,4.62709 C9.39793,4.41214 9.6361,3.82548 9.42116,3.31674 C9.20621,2.808 8.61955,2.56983 8.11081,2.78478 C4.52175,4.30117 2,7.85495 2,12 C2,17.5229 6.47715,22 12,22 C16.1451,22 19.6988,19.4783 21.2152,15.8893 C21.4302,15.3805 21.192,14.7938 20.6833,14.5789 C20.1745,14.364 19.5879,14.6021 19.3729,15.1109 C18.1583,17.9857 15.3132,20 12,20 C7.58172,20 4,16.4183 4,12 C4,8.68678 6.01437,5.84172 8.88919,4.62709 Z" id="形状" fill="#09244B"></path>
            </g>
        </g>
    </g>
</svg>

<svg xmlns="http://www.w3.org/2000/svg" width="24" height="24"><g fill="none" fill-rule="evenodd"><path d="M24 0v24H0V0zM12.594 23.258l-.012.002-.071.035-.02.004-.014-.004-.071-.036c-.01-.003-.019 0-.024.006l-.004.01-.017.428.005.02.01.013.104.074.015.004.012-.004.104-.074.012-.016.004-.017-.017-.427c-.002-.01-.009-.017-.016-.018m.264-.113-.014.002-.184.093-.01.01-.003.011.018.43.005.012.008.008.201.092c.012.004.023 0 .029-.008l.004-.014-.034-.614c-.003-.012-.01-.02-.02-.022m-.715.002a.023.023 0 0 0-.027.006l-.006.014-.034.614c0 .012.007.02.017.024l.015-.002.201-.093.01-.008.003-.011.018-.43-.003-.012-.01-.01z"/><path fill="#09244B" d="M12 2a1 1 0 0 0-1 1v9a1 1 0 0 0 1 1h9a1 1 0 0 0 1-1c0-5.523-4.477-10-10-10m1 9V4.062A8.004 8.004 0 0 1 19.938 11zM8.89 4.627a1 1 0 0 0-.78-1.842A10.003 10.003 0 0 0 2 12c0 5.523 4.477 10 10 10 4.145 0 7.699-2.522 9.215-6.11a1 1 0 1 0-1.842-.78A8.002 8.002 0 0 1 4 12a8.003 8.003 0 0 1 4.89-7.373"/></g></svg>
